icons/category/icon_balance-transfer_xl_white.svg

<?xml version="1.0" encoding="UTF-8"?>
<svg width="30px" height="36px" viewBox="0 0 30 36" version="1.1" xmlns="http://www.w3.org/2000/svg" xmlns:xlink="http://www.w3.org/1999/xlink">
    <!-- Generator: Sketch 50.2 (55047) - http://www.bohemiancoding.com/sketch -->
    <title>icon_balance-transfer_xl_white</title>
    <desc>Created with Sketch.</desc>
    <defs></defs>
    <g id="Page-1" stroke="none" stroke-width="1" fill="none" fill-rule="evenodd">
        <g id="icon_balance-transfer_xl_white" transform="translate(-3.000000, 0.000000)">
            <rect id="Rectangle-path" x="0.01" y="0" width="36" height="36"></rect>
            <rect id="Rectangle-path" fill="#FFFFFF" fill-rule="nonzero" opacity="0.3" x="9" y="14" width="6" height="3"></rect>
            <rect id="Rectangle-path" fill="#FFFFFF" fill-rule="nonzero" opacity="0.3" x="4" y="6" width="28" height="3"></rect>
            <path d="M30.25,0 L5.75,0 C4.23121694,-9.29986408e-17 3,1.23121694 3,2.75 L3,20.25 C3,21.7687831 4.23121694,23 5.75,23 L16,23 L16.58,22 L5.75,22 C4.78577367,21.9945368 4.00546317,21.2142263 4,20.25 L4,2.75 C4,1.78350169 4.78350169,1 5.75,1 L30.25,1 C31.2164983,1 32,1.78350169 32,2.75 L32,20.25 C31.9945368,21.2142263 31.2142263,21.9945368 30.25,22 L19.68,22 L24.57,13.53 C24.6822542,13.375647 24.6968465,13.1708533 24.6076119,13.0021434 C24.5183773,12.8334335 24.3408829,12.730239 24.1501191,12.7361592 C23.9593554,12.7420794 23.7886014,12.8560814 23.71,13.03 L14,29.88 C13.9535204,29.0352909 13.5080031,28.2630609 12.8,27.8 C12.224992,27.485572 11.5482895,27.4135824 10.92,27.6 C9.6051981,28.0448347 8.51268397,28.9797402 7.87,30.21 C6.6,32.43 6.77,34.84 8.26,35.7 C8.60582932,35.9013707 8.99984691,36.0050596 9.4,36 C9.65002507,35.9998552 9.8989044,35.9662229 10.14,35.9 C11.4350669,35.442379 12.5075842,34.509289 13.14,33.29 L18,24.9 L22.84,33.29 C23.4699916,34.5111942 24.5433816,35.4450435 25.84,35.9 C26.0809475,35.9669464 26.3299257,36.0005921 26.58,36 C26.9800302,36.0040654 27.3737883,35.9004449 27.72,35.7 C29.2,34.84 29.37,32.42 28.1,30.21 C27.4700084,28.9888058 26.3966184,28.0549565 25.1,27.6 C24.4721383,27.408993 23.7936242,27.4811753 23.22,27.8 C22.5019446,28.2562581 22.0477678,29.0305924 22,29.88 L18.55,23.88 L19.07,22.98 L30.25,22.98 C31.7610067,22.98004 32.9890109,21.7609668 33,20.25 L33,2.75 C33,1.23121694 31.7687831,9.29986408e-17 30.25,0 Z M12.25,32.79 C11.7414598,33.7862774 10.8725683,34.5514741 9.82,34.93 C9.449227,35.0473088 9.04728312,35.0150098 8.7,34.84 C7.7,34.27 7.7,32.38 8.7,30.71 C9.20929266,29.7105357 10.082641,28.9445662 11.14,28.57 C11.2924991,28.524248 11.4507871,28.5006732 11.61,28.5 C11.8337027,28.4960273 12.0544848,28.5512228 12.25,28.66 C13.24,29.23 13.25,31.12 12.29,32.79 L12.25,32.79 Z M23.69,28.66 C23.8855152,28.5512228 24.1062973,28.4960273 24.33,28.5 C24.4924935,28.5006749 24.6540815,28.5242398 24.81,28.57 C25.8652732,28.948117 26.737459,29.7130669 27.25,30.71 C28.25,32.38 28.2,34.27 27.25,34.84 C26.9027169,35.0150098 26.500773,35.0473088 26.13,34.93 C25.0747268,34.551883 24.202541,33.7869331 23.69,32.79 C22.75,31.12 22.76,29.23 23.73,28.66 L23.69,28.66 Z" id="Shape" fill="#FFFFFF" fill-rule="nonzero"></path>
        </g>
    </g>
</svg>

<svg xmlns="http://www.w3.org/2000/svg" viewBox="0 0 36 36"><defs><style>.cls-1{fill:none;}.cls-2,.cls-3{fill:#fff;}.cls-2{opacity:0.3;isolation:isolate;}</style></defs><title>icon_balance-transfer_xl_white</title><g id="Layer_2" data-name="Layer 2"><rect class="cls-1" x="0.01" width="36" height="36"/><rect class="cls-2" x="9" y="14" width="6" height="3"/><rect class="cls-2" x="4" y="6" width="28" height="3"/><path class="cls-3" d="M30.25,0H5.75A2.75,2.75,0,0,0,3,2.75v17.5A2.75,2.75,0,0,0,5.75,23H16l.58-1H5.75A1.76,1.76,0,0,1,4,20.25V2.75A1.75,1.75,0,0,1,5.75,1h24.5A1.75,1.75,0,0,1,32,2.75v17.5A1.76,1.76,0,0,1,30.25,22H19.68l4.89-8.47a.5.5,0,1,0-.86-.5L14,29.88a2.66,2.66,0,0,0-1.2-2.08,2.46,2.46,0,0,0-1.88-.2,5.39,5.39,0,0,0-3.05,2.61c-1.27,2.22-1.1,4.63.39,5.49a2.21,2.21,0,0,0,1.14.3,2.8,2.8,0,0,0,.74-.1,5.41,5.41,0,0,0,3-2.61h0L18,24.9l4.84,8.39h0a5.38,5.38,0,0,0,3,2.61,2.74,2.74,0,0,0,.74.1,2.23,2.23,0,0,0,1.14-.3c1.48-.86,1.65-3.28.38-5.49a5.38,5.38,0,0,0-3-2.61,2.42,2.42,0,0,0-1.88.2A2.64,2.64,0,0,0,22,29.88l-3.45-6,.52-.9H30.25A2.75,2.75,0,0,0,33,20.25V2.75A2.75,2.75,0,0,0,30.25,0Zm-18,32.79a4.4,4.4,0,0,1-2.43,2.14,1.49,1.49,0,0,1-1.12-.09c-1-.57-1-2.46,0-4.13a4.38,4.38,0,0,1,2.44-2.14,1.66,1.66,0,0,1,.47-.07,1.27,1.27,0,0,1,.64.16C13.24,29.23,13.25,31.12,12.29,32.79Zm11.44-4.13a1.27,1.27,0,0,1,.64-.16,1.73,1.73,0,0,1,.48.07,4.42,4.42,0,0,1,2.44,2.14c1,1.67.95,3.56,0,4.13a1.49,1.49,0,0,1-1.12.09,4.42,4.42,0,0,1-2.44-2.14C22.75,31.12,22.76,29.23,23.73,28.66Z"/></g></svg>
